X:27
T:Trip to Athlone
T:Newport Lass
S:Kilkenny Tavern sessions, London
N:A Co. Mayo tune recorded by De Danann and by
N:the Tulla Céilí Band.
Z:ATB
R:jig
M:6/8
L:1/8
K:D
ABA D2d|dcA AGE|ABA ABc|dAB cde|
ABA D2d|dcA AGE|~G3 Ade|[1 fdc dcB:|][2 fdc d2e|]
fed edc|Add Ade|~f3 ged|ABc d2f|
~g3 age|dcA AGE|GzG Ade|[1 fdc d2e:|][2 fdc dcB|]
